_inc/systems/logos/pcengine.svg

<?xml version="1.0" encoding="UTF-8"?>
<svg viewBox="0 0 600 290" xmlns="http://www.w3.org/2000/svg" xmlns:xlink="http://www.w3.org/1999/xlink" version="1.1">
<g id="surface1">
    <path d="M 61.278 213.427 C 60.863 213.427 60.445 213.333 60.048 213.138 C 19.855 193.631 -0.899 170.889 0.03 147.367 C 0.785 128.005 16.586 109.725 45.726 94.495 C 73.371 80.05 112.366 68.585 158.495 61.337 C 160.035 61.097 161.476 62.149 161.716 63.686 C 161.96 65.223 160.907 66.664 159.37 66.907 C 65.927 81.581 7.031 112.498 5.663 147.592 C 4.839 168.398 25.028 189.878 62.511 208.07 C 63.909 208.75 64.493 210.431 63.813 211.839 C 63.326 212.84 62.321 213.427 61.278 213.427 Z" id="path7" style="fill-opacity: 1; fill: rgb(255, 255, 255);"/>
    <path d="M 411.664 68.967 C 411.511 68.967 411.357 68.955 411.201 68.931 C 381.508 64.056 350.169 60.802 318.046 59.265 C 316.488 59.193 315.288 57.873 315.364 56.315 C 315.439 54.763 316.783 53.575 318.314 53.638 C 350.654 55.184 382.214 58.459 412.118 63.37 C 413.652 63.62 414.695 65.07 414.44 66.606 C 414.211 67.99 413.02 68.967 411.664 68.967 Z" id="path11" style="fill-opacity: 1; fill: rgb(255, 255, 255);"/>
    <path d="M 322.955 261.439 C 322.167 261.439 321.385 261.439 320.594 261.435 C 319.036 261.432 317.785 260.169 317.788 258.611 C 317.794 257.057 319.048 255.802 320.603 255.802 C 320.606 255.802 320.609 255.802 320.615 255.802 C 321.388 255.805 322.179 255.805 322.958 255.805 C 473.772 255.808 592.779 216.606 594.349 166.224 C 594.899 148.591 580.737 130.705 553.383 114.501 C 526.148 98.36 487.11 84.603 440.503 74.718 C 438.981 74.396 438.01 72.898 438.328 71.376 C 438.65 69.855 440.151 68.886 441.673 69.205 C 488.873 79.217 528.496 93.202 556.256 109.653 C 585.48 126.97 600.601 146.594 599.982 166.398 C 599.149 193.192 569.549 217.616 516.641 235.162 C 465.483 252.124 396.78 261.439 322.955 261.439 Z" id="path15" style="fill-opacity: 1; fill: rgb(255, 255, 255);"/>
    <polygon points="373.989 114.726 448.389 58.014 361.006 92.895 336.449 67.334 344.278 102.754 269.881 159.463 357.267 124.573 381.82 150.134" id="polygon17" style="fill-opacity: 1; fill: rgb(255, 255, 255);"/>
    <path d="M 280.816 185.52 C 281.884 180.269 283.83 181.033 289.153 180.185 L 294.11 179.406 L 292.567 187.67 L 287.61 188.461 C 282.287 189.307 279.941 190.729 280.816 185.52 Z M 270.071 177.953 L 266.215 198.705 C 265.159 204.371 266.871 206.194 272.323 205.331 L 303.893 200.323 L 310.66 163.932 L 279.087 168.934 C 273.635 169.797 271.117 172.29 270.071 177.953 Z M 470.485 145.199 L 470.115 147.204 L 502.68 142.035 C 505.251 141.623 507.754 139.024 508.28 136.215 C 508.794 133.406 507.14 131.46 504.569 131.872 L 496.205 133.193 L 482.861 135.316 L 479.48 135.845 C 475.567 136.471 471.276 140.931 470.485 145.199 Z M 242.008 239.039 L 242.272 237.592 C 243.391 237.676 244.892 238.109 246.203 237.914 L 280.047 232.606 C 278.789 239.357 269.872 241.051 256.26 243.207 L 240.772 245.667 L 232.465 290.332 L 252.817 287.105 C 302.922 282.16 321.983 256.263 328.103 225.394 L 389.156 215.703 L 398.993 162.765 L 403.959 161.971 C 409.399 161.108 408.596 160.125 407.553 165.779 L 398.548 214.218 L 442.38 207.261 L 442.978 204.052 C 446.286 205.511 450.154 206.025 454.244 205.382 L 530.048 193.358 L 537.116 155.31 L 532.205 151.812 C 536.46 146.768 539.778 140.6 540.74 135.421 L 541.934 129.421 C 545.717 106.979 525.026 101.018 515.582 102.519 L 472.082 109.421 C 464.376 110.645 455.895 116.014 449.721 123.126 C 444.013 117.472 435.204 115.274 430.079 116.089 L 381.649 123.77 L 387.072 135.752 L 430.747 128.832 C 437.047 127.827 441.255 130.341 442.41 135.331 C 441.943 136.651 430.747 196.266 430.747 196.266 L 415.086 198.753 L 423.483 153.62 C 424.524 147.968 422.816 146.14 417.378 147.006 L 387.366 151.773 L 377.52 204.711 L 360.305 207.451 L 371.571 146.838 L 357.4 130.122 L 306.386 148.564 L 330.564 144.726 L 330.955 144.672 L 315.58 227.388 C 311.673 248.398 289.253 268.491 269.364 271.649 L 249.015 274.873 L 252.101 258.32 L 267.58 255.872 C 281.189 253.706 296.51 240.085 299.153 225.842 L 300.822 216.879 L 260.513 223.273 C 251.869 224.648 247.178 219.397 248.877 210.266 L 256.107 171.382 C 257.385 164.471 261.698 158.735 267.466 155.752 L 267.559 154.714 L 287.785 139.15 L 275.971 141.138 C 269.683 142.131 258.029 146.844 250.621 156.29 C 245.021 149.607 235.226 146.991 229.71 147.866 L 186.261 154.768 L 193.343 116.708 L 225.042 111.677 C 241.914 109.006 260.585 90.026 263.905 72.203 L 268.669 46.555 C 271.986 28.721 259.445 14.697 242.57 17.374 L 173.295 28.363 L 158.534 107.779 L 94.745 117.902 C 89.347 118.76 84.093 124.083 83.037 129.788 L 59.197 258.007 C 58.141 263.715 61.66 267.652 67.058 266.801 L 188.775 247.487 L 198.621 194.549 L 203.578 193.755 C 209.03 192.901 208.227 191.92 207.169 197.571 L 198.167 245.995 L 242.008 239.039 Z M 151.686 210.013 L 110.986 216.47 L 112.517 208.209 L 145.389 202.982 L 153.389 159.965 L 120.517 165.189 L 122.047 156.919 L 162.748 150.459 L 151.686 210.013 Z M 149.223 223.252 L 145.843 241.448 L 73.834 252.87 L 96.276 132.098 L 155.764 122.66 L 152.691 139.208 L 110.423 145.92 L 103.969 180.66 L 138.405 175.198 L 135.332 191.737 L 100.893 197.198 L 94.426 231.95 L 149.223 223.252 Z M 231.939 227.8 L 214.715 230.521 L 223.102 185.403 C 224.161 179.746 222.45 177.911 216.997 178.774 L 186.988 183.541 L 177.151 236.479 L 159.927 239.216 L 172.841 169.737 L 173.241 169.671 L 230.375 160.606 C 239.018 159.232 243.707 164.474 242.008 173.613 L 231.939 227.8 Z M 343.866 142.6 L 360.699 139.935 L 347.776 209.418 L 330.561 212.146 L 343.472 142.672 L 343.866 142.6 Z M 448.307 175.346 L 454.283 143.205 C 456.178 133.039 467.104 123.054 476.409 121.575 L 516.68 115.193 C 523.465 114.113 528.178 121.692 526.794 129.105 L 524.818 139.451 C 523.432 146.868 515.856 154.75 509.077 155.83 L 467.276 162.465 L 466.674 166.218 C 465.88 170.483 468.71 173.815 472.623 173.192 L 519.345 165.752 L 516.196 182.708 L 463.489 191.063 C 454.181 192.537 446.425 185.52 448.307 175.346 Z M 199.181 85.268 L 205.024 53.831 L 226.94 50.354 C 229.815 49.9 231.283 51.539 230.711 54.57 L 226.718 76.086 C 226.146 79.127 223.972 81.334 221.096 81.791 L 199.181 85.268 Z" id="path21" style="fill-opacity: 1; fill: rgb(255, 255, 255);"/>
    <path d="M 339.258 99.975 L 334.609 81.548 L 331.983 81.863 L 331.141 86.408 C 330.558 89.56 328.025 92.122 325.054 92.6 L 307.048 95.454 C 304.074 95.93 302.374 94.026 302.961 90.877 L 312.034 42.071 C 312.618 38.934 315.15 36.366 318.119 35.891 L 336.127 33.037 C 339.099 32.564 340.798 34.465 340.212 37.602 L 339.051 43.816 L 375.451 38.035 L 376.834 30.595 C 380.323 11.819 367.559 -2.455 349.785 0.354 L 314.958 5.882 C 297.195 8.703 278.179 28.02 274.69 46.796 L 265.003 98.91 C 261.517 117.686 274.281 131.959 292.056 129.138 L 303.695 127.301 L 339.258 99.975 Z" id="path25" style="fill-opacity: 1; fill: rgb(255, 255, 255);"/>
    <path d="M 365.063 88.859 C 366.013 86.303 366.669 85.331 367.156 82.709 L 368.392 76.083 L 353.908 78.387 L 365.063 88.859 Z" id="path27" style="fill-opacity: 1; fill: rgb(255, 255, 255);"/>
  </g>
</svg>

<svg xmlns="http://www.w3.org/2000/svg" viewBox="0 0 600 290"><path d="M61.28 213.43q-.64 0-1.23-.3C19.85 193.64-.9 170.9.03 147.38.79 128 16.59 109.72 45.73 94.5c27.64-14.45 66.64-25.92 112.77-33.16a2.82 2.82 0 0 1 .87 5.57C65.93 81.58 7.03 112.5 5.67 147.59c-.83 20.8 19.36 42.29 56.84 60.48a2.82 2.82 0 0 1-1.23 5.36M411.66 68.97q-.22 0-.46-.04a819 819 0 0 0-93.15-9.67 2.81 2.81 0 1 1 .26-5.62 824 824 0 0 1 93.8 9.73 2.81 2.81 0 0 1-.45 5.6m-88.7 192.47h-2.37a2.81 2.81 0 0 1 .01-5.64h2.36c150.81 0 269.82-39.2 271.39-89.58.55-17.63-13.61-35.51-40.97-51.72-27.23-16.14-66.27-29.9-112.88-39.78a2.82 2.82 0 0 1 1.17-5.51c47.2 10 86.83 24 114.59 40.44 29.22 17.32 44.34 36.94 43.72 56.75-.83 26.8-30.43 51.22-83.34 68.76-51.16 16.96-119.86 26.28-193.68 26.28" style="fill-opacity:1;fill:#fff"/><path d="m373.99 114.73 74.4-56.72-87.38 34.89-24.56-25.57 7.83 35.42-74.4 56.71 87.39-34.89 24.55 25.56z" style="fill-opacity:1;fill:#fff"/><path d="M280.82 185.52c1.06-5.25 3.01-4.49 8.33-5.34l4.96-.77-1.54 8.26-4.96.8c-5.32.84-7.67 2.26-6.8-2.95m-10.75-7.57-3.86 20.76c-1.05 5.66.66 7.48 6.11 6.62l31.57-5 6.77-36.4-31.57 5c-5.45.87-7.97 3.36-9.02 9.02M470.5 145.2l-.37 2 32.56-5.16c2.57-.42 5.07-3.02 5.6-5.82.51-2.81-1.14-4.76-3.71-4.35l-8.37 1.32-13.34 2.13-3.38.53c-3.91.62-8.2 5.08-9 9.35M242 239.04l.26-1.45c1.12.09 2.62.52 3.93.32l33.85-5.3c-1.26 6.75-10.18 8.44-23.79 10.6l-15.49 2.46-8.3 44.66 20.35-3.22c50.1-4.95 69.16-30.85 75.28-61.72l61.06-9.69 9.83-52.93 4.97-.8c5.44-.86 4.64-1.84 3.6 3.8l-9.01 48.45 43.83-6.96.6-3.2a20 20 0 0 0 11.26 1.32l75.8-12.02 7.08-38.05-4.91-3.5c4.25-5.04 7.57-11.21 8.53-16.39l1.2-6c3.78-22.44-16.91-28.4-26.36-26.9l-43.5 6.9c-7.7 1.22-16.19 6.6-22.36 13.7-5.7-5.65-14.52-7.85-19.64-7.03l-48.43 7.68 5.42 11.98 43.68-6.92c6.3-1 10.5 1.51 11.66 6.5-.47 1.32-11.66 60.94-11.66 60.94l-15.66 2.48 8.4-45.13c1.03-5.65-.67-7.48-6.11-6.61l-30.01 4.76-9.85 52.94-17.21 2.74 11.26-60.61-14.17-16.72-51.01 18.44 24.17-3.83.4-.06-15.38 82.72c-3.9 21-26.33 41.1-46.22 44.26L249 274.87l3.1-16.55 15.47-2.45c13.6-2.16 28.93-15.78 31.57-30.03l1.67-8.96-40.3 6.4c-8.65 1.37-13.34-3.88-11.64-13.01l7.23-38.89a22 22 0 0 1 11.36-15.63l.09-1.04 20.23-15.56-11.82 1.99c-6.29 1-17.94 5.7-25.35 15.15-5.6-6.68-15.4-9.3-20.91-8.42l-43.45 6.9 7.08-38.06 31.7-5.03c16.87-2.67 35.54-21.65 38.86-39.48l4.77-25.65c3.32-17.83-9.23-31.85-26.1-29.18l-69.28 11-14.76 79.4-63.78 10.13c-5.4.86-10.66 6.18-11.71 11.89L59.2 258c-1.06 5.7 2.46 9.64 7.86 8.8l121.72-19.32 9.84-52.94 4.96-.8c5.45-.85 4.65-1.83 3.59 3.82l-9 48.43zM151.69 210l-40.7 6.46 1.53-8.26 32.87-5.23 8-43.01-32.87 5.22 1.53-8.27 40.7-6.46zm-2.47 13.24-3.38 18.2-72 11.42L96.27 132.1l59.48-9.44-3.07 16.55-42.27 6.71-6.45 34.74 34.44-5.46-3.08 16.54-34.44 5.46-6.46 34.75zm82.72 4.55-17.22 2.72 8.38-45.12c1.06-5.65-.65-7.49-6.1-6.63l-30.01 4.77-9.84 52.94-17.22 2.74 12.91-69.48.4-.07 57.13-9.06c8.65-1.38 13.34 3.86 11.64 13zm111.93-85.2 16.83-2.66-12.92 69.48-17.22 2.73 12.91-69.48zm104.44 32.75 5.97-32.14c1.9-10.17 12.82-20.16 22.13-21.64l40.27-6.38c6.79-1.08 11.5 6.5 10.11 13.91l-1.97 10.35c-1.39 7.42-8.96 15.3-15.74 16.38l-41.8 6.63-.6 3.76c-.8 4.26 2.03 7.6 5.94 6.97l46.73-7.44-3.15 16.96-52.71 8.35c-9.3 1.48-17.06-5.54-15.18-15.71M199.18 85.27l5.84-31.44 21.92-3.48c2.88-.45 4.34 1.19 3.77 4.22l-4 21.52a6.8 6.8 0 0 1-5.61 5.7z" style="fill-opacity:1;fill:#fff"/><path d="m339.26 99.98-4.65-18.43-2.63.31-.84 4.55a7.7 7.7 0 0 1-6.09 6.19l-18 2.85c-2.98.48-4.68-1.42-4.09-4.57l9.07-48.8c.59-3.15 3.12-5.71 6.09-6.19l18-2.85c2.98-.48 4.68 1.43 4.1 4.56l-1.17 6.22 36.4-5.79 1.38-7.44c3.5-18.77-9.27-33.04-27.04-30.24l-34.83 5.53C297.2 8.7 278.18 28.02 274.69 46.8L265 98.9c-3.48 18.78 9.28 33.05 27.06 30.23l11.63-1.84zm25.8-11.12c.95-2.56 1.6-3.53 2.1-6.15l1.23-6.63-14.48 2.3z" style="fill-opacity:1;fill:#fff"/></svg>
